X:82
T:82. RH Pocket: Pulse Stabs
T:Use when matching LH groove — rhythmic chord hits
C:RH chord quarter-note stabs; LH whole-note anchor
M:4/4
L:1/4
Q:1/4=96
%%score {V1 V2}
V:V1 clef=treble
V:V2 clef=bass
K:C
[V:V1] "C" [cegc'] [cegc'] [cegc'] [cegc'] | "F" [fac'f'] [fac'f'] [fac'f'] [fac'f'] | "G" [gbd'g'] [gbd'g'] [gbd'g'] [gbd'g'] | "C" [cegc'] [cegc'] [cegc'] [cegc'] |]
[V:V2] C,4 | F,4 | G,4 | C,4 |]

